img/car.svg

<svg width="80" height="80" viewBox="0 0 80 80" fill="none" xmlns="http://www.w3.org/2000/svg">
<g clip-path="url(#clip0_1_40)">
<path d="M80 28.3333C80 27.0073 79.4732 25.7355 78.5355 24.7978C77.5978 23.8601 76.3261 23.3333 75 23.3333C75 23.3333 73.0533 23.3333 72.9167 23.36C70.4242 18.7418 67.5685 14.329 64.3767 10.1633C62.7112 7.99766 60.4033 6.41434 57.7833 5.64C51.9133 2.78667 28.0867 2.78667 22.2167 5.64C19.5967 6.41434 17.2888 7.99766 15.6233 10.1633C12.4315 14.329 9.57584 18.7418 7.08333 23.36C6.94667 23.3333 5 23.3333 5 23.3333C3.67392 23.3333 2.40215 23.8601 1.46447 24.7978C0.526784 25.7355 0 27.0073 0 28.3333L0 50C0.000644459 52.3399 0.617034 54.6384 1.78725 56.6646C2.95746 58.6908 4.64028 60.3734 6.66667 61.5433V66.6667C6.66667 69.3188 7.72024 71.8624 9.5956 73.7377C11.471 75.6131 14.0145 76.6667 16.6667 76.6667C19.3188 76.6667 21.8624 75.6131 23.7377 73.7377C25.6131 71.8624 26.6667 69.3188 26.6667 66.6667V63.3333H53.3333V66.6667C53.3333 69.3188 54.3869 71.8624 56.2623 73.7377C58.1376 75.6131 60.6812 76.6667 63.3333 76.6667C65.9855 76.6667 68.529 75.6131 70.4044 73.7377C72.2798 71.8624 73.3333 69.3188 73.3333 66.6667V61.5433C75.3597 60.3734 77.0425 58.6908 78.2128 56.6646C79.383 54.6384 79.9994 52.3399 80 50V28.3333ZM20.9133 14.22C21.7299 13.1669 22.8579 12.3982 24.1367 12.0233C29.2 9.52 50.8033 9.52 55.8633 12.0233C57.1421 12.3982 58.2701 13.1669 59.0867 14.22C64.1487 20.8575 68.3177 28.1307 71.4867 35.8533C50.6061 32.8067 29.3939 32.8067 8.51333 35.8533C11.6823 28.1307 15.8513 20.8575 20.9133 14.22ZM20 66.6667C20 67.5507 19.6488 68.3986 19.0237 69.0237C18.3986 69.6488 17.5507 70 16.6667 70C15.7826 70 14.9348 69.6488 14.3096 69.0237C13.6845 68.3986 13.3333 67.5507 13.3333 66.6667V63.3333H20V66.6667ZM66.6667 66.6667C66.6667 67.5507 66.3155 68.3986 65.6904 69.0237C65.0652 69.6488 64.2174 70 63.3333 70C62.4493 70 61.6014 69.6488 60.9763 69.0237C60.3512 68.3986 60 67.5507 60 66.6667V63.3333H66.6667V66.6667ZM66.6667 56.6667H13.3333C11.5652 56.6667 9.86953 55.9643 8.61929 54.7141C7.36905 53.4638 6.66667 51.7681 6.66667 50V42.8567C17.7025 41.1696 28.838 40.2153 40 40C51.162 40.2153 62.2975 41.1696 73.3333 42.8567V50C73.3333 51.7681 72.631 53.4638 71.3807 54.7141C70.1305 55.9643 68.4348 56.6667 66.6667 56.6667ZM20 50C20 50.8841 19.6488 51.7319 19.0237 52.357C18.3986 52.9821 17.5507 53.3333 16.6667 53.3333C15.7826 53.3333 14.9348 52.9821 14.3096 52.357C13.6845 51.7319 13.3333 50.8841 13.3333 50C13.3333 49.116 13.6845 48.2681 14.3096 47.643C14.9348 47.0179 15.7826 46.6667 16.6667 46.6667C17.5507 46.6667 18.3986 47.0179 19.0237 47.643C19.6488 48.2681 20 49.116 20 50ZM66.6667 50C66.6667 50.8841 66.3155 51.7319 65.6904 52.357C65.0652 52.9821 64.2174 53.3333 63.3333 53.3333C62.4493 53.3333 61.6014 52.9821 60.9763 52.357C60.3512 51.7319 60 50.8841 60 50C60 49.116 60.3512 48.2681 60.9763 47.643C61.6014 47.0179 62.4493 46.6667 63.3333 46.6667C64.2174 46.6667 65.0652 47.0179 65.6904 47.643C66.3155 48.2681 66.6667 49.116 66.6667 50Z" fill="#EFBE4C"/>
</g>
<defs>
<clipPath id="clip0_1_40">
<rect width="80" height="80" fill="white"/>
</clipPath>
</defs>
</svg>

<svg width="80" height="80" fill="none" xmlns="http://www.w3.org/2000/svg"><g clip-path="url(#clip0_1_40)"><path d="M80 28.333a5 5 0 00-5-5s-1.947 0-2.083.027a99.038 99.038 0 00-8.54-13.197 12.947 12.947 0 00-6.594-4.523c-5.87-2.853-29.696-2.853-35.566 0a12.947 12.947 0 00-6.594 4.523 99.038 99.038 0 00-8.54 13.197C6.947 23.333 5 23.333 5 23.333a5 5 0 00-5 5V50a13.333 13.333 0 006.667 11.543v5.124a10 10 0 0020 0v-3.334h26.666v3.334a10 10 0 0020 0v-5.124A13.334 13.334 0 0080 50V28.333zM20.913 14.22a6.334 6.334 0 013.224-2.197c5.063-2.503 26.666-2.503 31.726 0a6.334 6.334 0 013.224 2.197 95.395 95.395 0 0112.4 21.633 218.086 218.086 0 00-62.974 0 95.393 95.393 0 0112.4-21.633zM20 66.667a3.333 3.333 0 01-6.667 0v-3.334H20v3.334zm46.667 0a3.333 3.333 0 01-6.667 0v-3.334h6.667v3.334zm0-10H13.333A6.667 6.667 0 016.667 50v-7.143A252.843 252.843 0 0140 40a252.842 252.842 0 0133.333 2.857V50a6.667 6.667 0 01-6.666 6.667zM20 50a3.333 3.333 0 11-6.666 0A3.333 3.333 0 0120 50zm46.667 0A3.333 3.333 0 1160 50a3.333 3.333 0 016.667 0z" fill="#EFBE4C"/></g><defs><clipPath id="clip0_1_40"><path fill="#fff" d="M0 0h80v80H0z"/></clipPath></defs></svg>
